X: 19180
T: Is Treise Fonn Ar Theda
R: three-two
M: 3/2
K: Dminor
AD D/D/D Ac|GC C/C/C EG|AD D/D/D Ac|GE CE D2:|
|:dA A/A/A f/e/d|c2 GE CE|DE FG Ad|cA GE D2:|

